X:1
T:Herr, Ich Habe Missgehandelt, 87.87.88
T:Herr, Ich Habe Missgehandelt, 87.87.88
T:Johann Crüger, 1649
T:Public Domain Courtesy of the Cyber Hymnal™
C:Johann Crüger, 1649
Z:Public Domain
Z:Courtesy of the Cyber Hymnal™
%%score ( 1 2 ) ( 3 4 )
L:1/8
M:4/4
K:Ab
V:1 treble 
V:2 treble 
V:3 bass 
V:4 bass 
V:1
 [CF]4 C4 | [B,=E]2 [CF]2 [EG]2 [FA]2 | G4 F4 | [FA]4 [CG]4 | [CF]2 [CG]2 [FA]2 [FB]2 | [=Ec]8 | %6
 [CF]4 C4 | [B,=E]2 [CF]2 [EG]2 [FA]2 | G4 F4 | [FA]4 [CG]4 | [CF]2 [CG]2 [FA]2 [FB]2 | [=Ec]8 | %12
 z4 [Ec]2 [Ad]2 | [Ge]2 [Ec]2 [Fd]2 [Ec]2 | [EB]4 [CA]4 | [CA]4 [EB]4 | [Ec]2 [DF]2 [FB]2 [FA]2 | %17
 G4 F4 |] %18
V:2
 x4 C4 | x8 | (F2 =E2) F4 | x8 | x8 | x8 | x4 C4 | x8 | (F2 =E2) F4 | x8 | x8 | x8 | x8 | x8 | x8 | %15
 x8 | x8 | (F2 =E2) F4 |] %18
V:3
 [F,,A,]4 [A,,F,]4 | [G,,G,]2 [F,,A,]2 [C,C]2 [F,C]2 | [C,C]4 [F,,A,]4 | [F,C]4 [=E,G,]4 | %4
 [F,A,]2 [E,G,]2 [D,F,]2 [D,F,]2 | [C,G,]8 | [F,A,]4 [A,,F,]4 | [G,,G,]2 [F,,A,]2 [C,C]2 [F,C]2 | %8
 [C,C]4 [F,,A,]4 | [F,C]4 [=E,G,]4 | [F,A,]2 [E,G,]2 [D,F,]2 [D,F,]2 | [C,G,]8 | z4 A,2 [F,A,]2 | %13
 [E,B,]2 [A,,A,]2 [D,A,]2 A,2 | (A,2 G,2) [A,,A,]4 | F,4 [E,G,]4 | %16
 [A,,A,]2 [D,A,]2 [B,,D]2 [F,,C]2 | [C,C]4 [F,,=A,]4 |] %18
V:4
 x8 | x8 | x8 | x8 | x8 | x8 | x8 | x8 | x8 | x8 | x8 | x8 | x4 A,2 x2 | x6 A,2 | E,4 x4 | F,4 x4 | %16
 x8 | x8 |] %18

